X:65    
T:Reel St Jean
O:Qu\'ebec
R:reel
Q:1/4=200 
M:4/4  
L:1/8 
K:D
fe | dB BB FB dB | fB df Bf ed | cA AA EA cA |
eA ce Af fe | dB BB FB dB | fB df Bd cB | AB cd eA fe |
d2 c2 B2 :| A2 | dd de de fg | aa ab af ed |
d'd' d'b af de | fd ef ec ba | dd de de fg | aa ab af ed |
d'd' d'b af de  | fd ec d2 :|
